X: 31708
T: Pasucais D'Amieva
R: jig
M: 6/8
K: Amajor
Ace|:agf ecd|dee efe|1 cBA Ace:|2 cBA cde||
~B3 GBe|dec cdc|BGA ABB|B2 A cde|
BGB GBe|dec cdc|BGA ABB|B2 A df=g||
K:Bmin
|:f2 f dBd|cde dfg|fBf dBd|Ace dfg|
f2 a aeg|fdf agf|~e3 d2c|1 B2A dfg:|2 B2A Ace||

